icons/linear-ele-arrow-chevron-down.svg

<svg xmlns="http://www.w3.org/2000/svg" width="32px" height="32px" viewBox="0 0 32 32" version="1.1">
    <title>linear-ele-arrow-chevron-down</title>
    <g id="linear-ele-arrow-chevron-down" stroke-width="1" fill-rule="evenodd">
        <path d="M5.29289322,11.2928932 C5.68341751,10.9023689 6.31658249,10.9023689 6.70710678,11.2928932 L16,20.585 L25.2928932,11.2928932 C25.6533772,10.9324093 26.2206082,10.9046797 26.6128994,11.2097046 L26.7071068,11.2928932 C27.0976311,11.6834175 27.0976311,12.3165825 26.7071068,12.7071068 L16.7071068,22.7071068 C16.3165825,23.0976311 15.6834175,23.0976311 15.2928932,22.7071068 L5.29289322,12.7071068 C4.90236893,12.3165825 4.90236893,11.6834175 5.29289322,11.2928932 Z" id="&#36335;&#24452;" fill-rule="nonzero" />
    </g>
</svg>

<svg xmlns="http://www.w3.org/2000/svg" viewBox="0 0 32 32"><path fill="currentColor" d="M5.293 11.293a1 1 0 0 1 1.414 0L16 20.585l9.293-9.292a1 1 0 0 1 1.32-.083l.094.083a1 1 0 0 1 0 1.414l-10 10a1 1 0 0 1-1.414 0l-10-10a1 1 0 0 1 0-1.414"/></svg>
